build/img/twitter-icon.svg

<svg width="20" height="16" viewBox="0 0 20 16" fill="none" xmlns="http://www.w3.org/2000/svg">
<path d="M19.999 1.89937C19.25 2.22538 18.4556 2.43949 17.6423 2.53461C18.4996 2.03012 19.1412 1.23616 19.4476 0.300674C18.6431 0.771788 17.761 1.10195 16.8416 1.28055C16.2241 0.630434 15.4056 0.199271 14.5133 0.0540959C13.621 -0.0910793 12.705 0.0578671 11.9076 0.477779C11.1103 0.897691 10.4762 1.56504 10.1041 2.37608C9.73199 3.18712 9.64261 4.09641 9.84988 4.96259C8.21832 4.88212 6.62219 4.46495 5.16512 3.73814C3.70805 3.01133 2.42261 1.99113 1.39227 0.743792C1.02756 1.36015 0.835906 2.06082 0.836931 2.77403C0.836931 4.17386 1.56103 5.41053 2.66189 6.13458C2.01041 6.1144 1.37327 5.94129 0.803571 5.62968V5.67988C0.803768 6.61216 1.13164 7.5157 1.7316 8.23728C2.33156 8.95886 3.16668 9.45408 4.09537 9.63898C3.4906 9.80024 2.85646 9.82401 2.24097 9.70849C2.50281 10.511 3.01315 11.2128 3.70054 11.7157C4.38793 12.2185 5.21794 12.4973 6.07437 12.513C5.2232 13.1707 4.2486 13.657 3.20632 13.9439C2.16403 14.2308 1.0745 14.3127 0 14.185C1.87568 15.3719 4.05916 16.002 6.28925 16C13.8373 16 17.9651 9.84751 17.9651 4.51175C17.9651 4.33797 17.9602 4.16227 17.9523 3.99043C18.7558 3.41908 19.4492 2.71129 20 1.90034L19.999 1.89937Z" fill="#F9FBFD"/>
</svg>

<svg width="20" height="16" fill="none" xmlns="http://www.w3.org/2000/svg"><path fill="#F9FBFD" d="M19.999 1.9a8.33 8.33 0 01-2.357.635A4.063 4.063 0 0019.448.3a8.281 8.281 0 01-2.606.98A4.124 4.124 0 0014.513.054a4.162 4.162 0 00-2.605.424 4.065 4.065 0 00-1.804 1.898 3.978 3.978 0 00-.254 2.587 11.8 11.8 0 01-4.685-1.225A11.617 11.617 0 011.392.744a3.974 3.974 0 00-.555 2.03c0 1.4.724 2.637 1.825 3.36A4.14 4.14 0 01.804 5.63v.05a4 4 0 00.928 2.557A4.118 4.118 0 004.095 9.64a4.196 4.196 0 01-1.854.07 4.043 4.043 0 001.46 2.007 4.15 4.15 0 002.373.797 8.288 8.288 0 01-2.868 1.43A8.365 8.365 0 010 14.186 11.746 11.746 0 006.29 16c7.547 0 11.675-6.152 11.675-11.488 0-.174-.005-.35-.013-.522A8.262 8.262 0 0020 1.9h-.001z"/></svg>
